!!!!SEGMENT: Gsc1001a-Missa_Mijn_herte_altijt-Kyrie.krn
!!!id: Gsc1001a
!!!AGN: Mass; Kyrie
!!!voices: 4
!!!COM: Mathieu Gascongne
!!!OPR: Missa Mijn herte altijt
!!!OTL: Kyrie
**kern	**kern	**kern	**kern
*part4	*part3	*part2	*part1
*staff4	*staff3	*staff2	*staff1
*I"Bassus	*I"Tenor	*I"Altus	*I"Superius
*I'B	*I'T	*I'A	*I'S
*clefF4	*clefGv2	*clefG2	*clefG2
*k[]	*k[]	*k[]	*k[]
*C:	*C:	*C:	*C:
*M2/1	*M2/1	*M2/1	*M2/1
*met(C|)	*met(C|)	*met(C|)	*met(C|)
!!section: Kyrie I
!!!OMD: Kyrie I
=1	=1	=1	=1
0r	0r	0g	0r
=2	=2	=2	=2
0r	0r	1g	0dd
.	.	1d	.
=3	=3	=3	=3
0r	0r	2r	1dd
.	.	1f	.
.	.	.	1a
.	.	4e	.
.	.	4d	.
=4	=4	=4	=4
0r	0r	1e	1r
.	.	2A	1cc
.	.	2a	.
=5	=5	=5	=5
0r	0r	2g	2dd
.	.	2f	1ff
.	.	2d	.
.	.	[2a	4ee
.	.	.	4dd
=6	=6	=6	=6
0r	0r	4a]	1ee
.	.	4g	.
.	.	2e	.
.	.	2f	2a
.	.	2a	2cc
=7	=7	=7	=7
0r	0d	2g	2b
.	.	2f	2.a
.	.	2d	.
.	.	.	4g
.	.	[2a	4f
.	.	.	4e
=8	=8	=8	=8
0r	1d	4a]	4f
.	.	4g	4d
.	.	2f	1dd
.	1A	1e	.
.	.	.	2cc
=9	=9	=9	=9
0r	1r	1d	2dd
.	.	.	2.ff
.	1c	1g	.
.	.	.	8eeL
.	.	.	8ddJ
.	.	.	2ee
=10	=10	=10	=10
0r	2d	2f	0a
.	1f	1d	.
.	4e	4c	.
.	4d	4B	.
=11	=11	=11	=11
0r	1e	2A	1r
.	.	2.c	.
.	1A	.	1a
.	.	4d	.
.	.	4e	.
.	.	4c	.
=12	=12	=12	=12
0G	0r	2d	2.b
.	.	2.e	.
.	.	.	4a
.	.	.	4b
.	.	4d	4cc
.	.	[2d	[2dd
=13	=13	=13	=13
1G	0r	2d]	4dd]
.	.	.	4cc
.	.	1g	2b
1D	.	.	1a
.	.	2f#i	.
=14	=14	=14	=14
1r	1e	1g	2g
.	.	.	1cc
1F	1f	1a	.
.	.	.	4b
.	.	.	4a
=15	=15	=15	=15
2G	2e	1g	1b
1B	1g	.	.
.	.	1r	1r
4A	2f	.	.
4G	.	.	.
=16	=16	=16	=16
1A	2e	2r	1ee
.	4d	1a	.
.	4c	.	.
1D	1d	.	1ff
.	.	4g	.
.	.	4f	.
=17	=17	=17	=17
0r	1c	2.cc	2ee
.	.	.	1gg
.	.	4b	.
.	1r	4g	.
.	.	4a	.
.	.	[2b	2ff
=18	=18	=18	=18
1A	1r	4b]	2ee
.	.	4a	.
.	.	1a	4dd
.	.	.	4cc
1B	1d	.	1dd
.	.	2g	.
=19	=19	=19	=19
2A	2.e	1.a	1cc
1c	.	.	.
.	4d	.	.
.	2e	.	2cc
2B	[2d	[2g	[2dd
=20	=20	=20	=20
2A	2d]	4g]	4dd]
.	.	4c	4cc
4G	1c	1f	4b
4F	.	.	4a
1G	.	.	1b
.	2B	2e	.
=21	=21	=21	=21
1F	2c	1f	1a
.	2f	.	.
2r	2e	1r	1r
2B	2d	.	.
=22	=22	=22	=22
2A	2.c	0r	0r
2G	.	.	.
.	4B	.	.
2.F	2A	.	.
.	2c	.	.
4E	.	.	.
=23	=23	=23	=23
2D	4B	0r	0r
.	4A	.	.
2F	1d	.	.
1E	.	.	.
.	2c#i	.	.
=24	=24	=24	=24
1D	1d	2r	1r
.	.	2f	.
1r	1r	2e	2r
.	.	2d	2ff
=25	=25	=25	=25
2r	0r	2c	2ee
2B	.	2.f	2dd
2A	.	.	2.cc
.	.	4d	.
2G	.	2e	.
.	.	.	4b
=26	=26	=26	=26
2.F	1r	0f	1.a
4E	.	.	.
2D	2r	.	.
[2A	2f	.	[2cc
=27	=27	=27	=27
4A]	2e	1r	4cc]
4G	.	.	4b
2B	2d	.	2g
2A	2c	2r	2a
2D	[2f	2a	[2dd
=28	=28	=28	=28
1.A	4f]	2.a	4dd]
.	4d	.	8ccL
.	.	.	8bJ
.	2e	.	2cc
.	.	4b	.
.	2f	4cc	2a
.	.	4a	.
2G	[2g	2b	[2ee
=29	=29	=29	=29
1B	4g]	1g	4ee]
.	4f	.	4dd
.	2d	.	1dd
1A	1e	1a	.
.	.	.	2cc#i
=30	=30	=30	=30
00D	00d	00a	00dd
=31||	=31||	=31||	=31||
*M2/1	*M2/1	*M2/1	*M2/1
*met(C|)	*met(C|)	*met(C|)	*met(C|)
!!section: Christe
!!!OMD: Christe
0r	1e	0r	0r
.	2.e	.	.
.	4d	.	.
=32	=32	=32	=32
1A	4e	0r	0r
.	4c	.	.
.	2.f	.	.
1A	.	.	.
.	4e	.	.
.	4f	.	.
.	4d	.	.
=33	=33	=33	=33
2G	2e	0r	0r
2.F	2f	.	.
.	2d	.	.
4G	.	.	.
4A	2f	.	.
4B	.	.	.
=34	=34	=34	=34
2c	2e	0r	0r
2A	4d	.	.
.	4c	.	.
1B	1d	.	.
=35	=35	=35	=35
0A	1c	0r	1ee
.	1r	.	2.ee
.	.	.	4dd
=36	=36	=36	=36
1r	0r	1a	4ee
.	.	.	4cc
.	.	.	2.ff
2.A	.	1a	.
.	.	.	4ee
.	.	.	4ff
4B	.	.	4dd
=37	=37	=37	=37
2c	0r	2g	2ee
1d	.	2.f	2ff
.	.	.	2dd
.	.	4g	.
2d	.	4a	2ff
.	.	4b	.
=38	=38	=38	=38
1c	0r	2cc	2ee
.	.	1a	4dd
.	.	.	4cc
1B	.	.	1dd
.	.	2g#i	.
=39	=39	=39	=39
0A	2r	[0a	[0cc
.	1e	.	.
.	2e	.	.
=40	=40	=40	=40
2r	2f	0a]	0cc]
1A	1e	.	.
2A	4d	.	.
.	4c	.	.
=41	=41	=41	=41
2B	2d	2r	0r
1A	2c	1a	.
.	2e	.	.
4G	2f	2a	.
4F	.	.	.
=42	=42	=42	=42
2G	1d	2b	0r
2F	.	1a	.
1A	2r	.	.
.	2c	4g	.
.	.	4f	.
=43	=43	=43	=43
2B	2d	2g	0r
1A	2e	2.a	.
.	2f	.	.
.	.	4b	.
4G	[2e	2cc	.
4F	.	.	.
=44	=44	=44	=44
2G	2e]	2b	2r
2A	4d	1a	1ee
.	4c	.	.
1E	1B	.	.
.	.	2g#i	2ee
=45	=45	=45	=45
0A	1A	0a	2ff
.	.	.	1ee
.	1r	.	.
.	.	.	4dd
.	.	.	4cc
=46	=46	=46	=46
0r	2r	0r	2dd
.	1e	.	2cc
.	.	.	1gg
.	4d	.	.
.	4c	.	.
=47	=47	=47	=47
0r	2d	0r	2r
.	2c	.	1ee
.	1g	.	.
.	.	.	4dd
.	.	.	4cc
=48	=48	=48	=48
1r	1f	2r	2dd
.	.	2a	2cc
1c	1e	2g	1gg
.	.	[2cc	.
=49	=49	=49	=49
1d	1r	2cc]	1ff
.	.	2b	.
1c	2r	1cc	1ee
.	[2g	.	.
=50	=50	=50	=50
2B	4g]	2r	1r
.	4f	.	.
2c	1e	2.g	.
1G	.	.	2r
.	.	4a	.
.	2d	2b	[2gg
=51	=51	=51	=51
1c	1e	2g	4gg]
.	.	.	4ff
.	.	1cc	1ee
1d	1f	.	.
.	.	2b	2dd
=52	=52	=52	=52
2c	2e	2.cc	2ee
1F	2c	.	2.ff
.	.	4b	.
.	1f	4a	.
.	.	4g	4ee
2G	.	[2b	[2dd
=53	=53	=53	=53
1A	1e	2b]	2dd]
.	.	1a	2cc
1B-i	2r	.	1dd
.	2d	2g	.
=54	=54	=54	=54
[0Al	1e	[0al	[0ccl
.	1f	.	.
=55	=55	=55	=55
00A]	00e	00a]	00cc]
=56||	=56||	=56||	=56||
*M2/1	*M2/1	*M2/1	*M2/1
*met(C|)	*met(C|)	*met(C|)	*met(C|)
!!section: Kyrie II
!!!OMD: Kyrie II
0r	0r	1r	1.ee
.	.	[1a	.
.	.	.	4dd
.	.	.	4cc
=57	=57	=57	=57
0r	0r	2a]	1ff
.	.	4g	.
.	.	4f	.
.	.	2g	[1ee
.	.	2a	.
=58	=58	=58	=58
0r	1r	2e	2ee]
.	.	1a	4dd
.	.	.	4cc
.	[1e	.	1b
.	.	2g#i	.
=59	=59	=59	=59
1.A	2e]	0a	1a
.	4d	.	.
.	4c	.	.
.	1f	.	1r
4G	.	.	.
4F	.	.	.
=60	=60	=60	=60
2G	1.e	0r	0r
2A	.	.	.
2E	.	.	.
2A	4d	.	.
.	4c	.	.
=61	=61	=61	=61
2G	4B	0r	1r
.	4A	.	.
2F	1d	.	.
1E	.	.	1ee
.	2c#i	.	.
=62	=62	=62	=62
0D	0d	1a	1.ff
.	.	2.dd	.
.	.	.	2ee
.	.	4cc	.
=63	=63	=63	=63
0r	1r	4b	2dd
.	.	4a	.
.	.	1a	2cc
.	1e	.	1b
.	.	2g#i	.
=64	=64	=64	=64
0r	1.f	0a	1a
.	.	.	2.dd
.	2e	.	.
.	.	.	4cc
=65	=65	=65	=65
1G	2d	1r	4b
.	.	.	4a
.	2c	.	1a
1G	1B	2.d	.
.	.	.	2g
.	.	4e	.
=66	=66	=66	=66
2D	1A	4f	1a
.	.	4g	.
2F	.	2.a	.
2G	1r	.	1dd
.	.	4g	.
[2B	.	2g	.
=67	=67	=67	=67
2B]	0r	2f	1dd
4A	.	2g	.
4G	.	.	.
1A	.	1e	2a
.	.	.	2cc
=68	=68	=68	=68
1D	1d	2.f	2dd
.	.	.	1ff
.	.	4g	.
1r	1d	4a	.
.	.	4d	.
.	.	[2a	4ee
.	.	.	4dd
=69	=69	=69	=69
0r	2A	2a]	1ee
.	2c	2g	.
.	2d	2f	1a
.	[2f	[2d	.
=70	=70	=70	=70
0r	2f]	2d]	0r
.	4e	4c	.
.	4d	4B	.
.	1e	4A	.
.	.	4B	.
.	.	4c	.
.	.	4d	.
=71	=71	=71	=71
2r	1A	2e	1cc
2A	.	1f	.
2B	1r	.	2dd
[2d	.	4e	[2ff
.	.	4d	.
=72	=72	=72	=72
2d]	1r	0a	2ff]
4c	.	.	4ee
4B	.	.	4dd
1c	1e	.	1ee
=73	=73	=73	=73
1d	1f	2r	1a
.	.	2a	.
1r	2e	2.g	1r
.	[2g	.	.
.	.	4a	.
=74	=74	=74	=74
0r	2g]	2b	1ee
.	4f	1cc	.
.	4e	.	.
.	1d	.	1ff
.	.	2b	.
=75	=75	=75	=75
2r	1c	2.cc	2ee
1e	.	.	1gg
.	.	4b	.
.	1r	4g	.
.	.	4a	.
2d	.	[2b	2ff
=76	=76	=76	=76
2c	1r	4b]	2ee
.	.	4a	.
2A	.	1a	4dd
.	.	.	4cc
1B	1d	.	1dd
.	.	2g	.
=77	=77	=77	=77
2A	1e	1.a	2cc
1c	.	.	1ee
.	2A	.	.
2B	[2d	[2g	2dd
=78	=78	=78	=78
2A	2d]	2g]	2cc
2F	1c	1f	2a
1G	.	.	1b
.	2B	2e	.
=79	=79	=79	=79
1F	2c	2f	1a
.	2f	2a	.
1r	2e	2g	2r
.	2d	2f	2ff
=80	=80	=80	=80
2r	2c	2g	2ee
2B	2.f	2d	2dd
2A	.	2f	2.cc
.	4d	.	.
2G	2e	2g	.
.	.	.	4b
=81	=81	=81	=81
2.F	2f	1c	1a
.	2.a	.	.
4E	.	.	.
2D	.	[1d	2a
.	4f	.	.
[2G	2g	.	[2b
=82	=82	=82	=82
4G]	2d	2d]	4b]
4F	.	.	4a
2D	2f	2.a	1dd
1A	1e	.	.
.	.	4g	.
.	.	4f	2cc#i
.	.	4e	.
=83	=83	=83	=83
[0Dl	[0dl	1.f	[0ddl
.	.	4e	.
.	.	4d	.
=84	=84	=84	=84
00D]	00d]	00al	00dd]
==	==	==	==
*-	*-	*-	*-
!!!system-decoration: [*]
!!!RDF**kern: i = editorial accidental
!!!RDF**kern: l = terminal long
!!!PTL: Occo Codex Edition
!!!PPR: The CMME Project
!!!PDT: 2008
!!!PED: Marnix van Berchum
!!!YEC: Copyright 2008 The CMME Project
!!!EED: Benjamin Ory
!!!EEV: 2025/5/7
!!!verovio: header encoded
!!!header-left: Transcribed by @{PED}\n@{PTL}, @{PPR}\n
!!!header-right:
!!!header-center: